web/images/logout.svg

<?xml version="1.0" ?><svg height="16px" version="1.1" viewBox="0 0 16 16" width="16px" xmlns="http://www.w3.org/2000/svg" xmlns:sketch="http://www.bohemiancoding.com/sketch/ns" xmlns:xlink="http://www.w3.org/1999/xlink"><title/><defs/><g fill="none" fill-rule="evenodd" id="Icons with numbers" stroke="none" stroke-width="1"><g fill="#000000" id="Group" transform="translate(-240.000000, -144.000000)"><path d="M248,158 C250.761424,158 253,155.761424 253,153 C253,151.364186 252.214451,149.911848 251,148.999634 L251,146.673631 C253.364945,147.797092 255,150.207602 255,153 C255,156.865993 251.865993,160 248,160 C244.134007,160 241,156.865993 241,153 C241,150.207602 242.635055,147.797092 245,146.673631 L245,148.999634 C243.785549,149.911848 243,151.364186 243,153 C243,155.761424 245.238576,158 248,158 Z M248,153 C247.443865,153 247,152.553614 247,152.00297 L247,145.99703 C247,145.453036 247.447715,145 248,145 C248.556135,145 249,145.446386 249,145.99703 L249,152.00297 C249,152.546964 248.552285,153 248,153 Z M248,153" id="Oval 188"/></g></g></svg>

<?xml version="1.0" encoding="utf-8"?>
<!-- Generator: Adobe Illustrator 16.0.0, SVG Export Plug-In . SVG Version: 6.00 Build 0)  -->
<!DOCTYPE svg PUBLIC "-//W3C//DTD SVG 1.1//EN" "http://www.w3.org/Graphics/SVG/1.1/DTD/svg11.dtd">
<svg version="1.1" id="Layer_1" xmlns:sketch="http://www.bohemiancoding.com/sketch/ns"
	 xmlns="http://www.w3.org/2000/svg" xmlns:xlink="http://www.w3.org/1999/xlink" x="0px" y="0px" width="16px" height="16px"
	 viewBox="0 0 16 16" enable-background="new 0 0 16 16" xml:space="preserve">
<title></title>
<g id="Icons_with_numbers">
	<g id="Group" transform="translate(-240.000000, -144.000000)">
		<path id="Oval_188" fill="#FFFFFF" d="M248,158c2.762,0,5-2.238,5-5c0-1.636-0.785-3.088-2-4v-2.326c2.365,1.123,4,3.534,4,6.326
			c0,3.866-3.134,7-7,7s-7-3.134-7-7c0-2.792,1.635-5.203,4-6.326V149c-1.214,0.913-2,2.365-2,4C243,155.762,245.239,158,248,158z
			 M248,153c-0.556,0-1-0.446-1-0.997v-6.006c0-0.544,0.448-0.997,1-0.997c0.557,0,1,0.446,1,0.997v6.006
			C249,152.547,248.553,153,248,153z"/>
	</g>
</g>
</svg>
